.local/share/icons/Gruvbox-Plus-Dark/panel/16/google-chrome-notification.svg

<svg width="16" height="16" version="1.1" xmlns="http://www.w3.org/2000/svg">
  <defs>
    <style id="current-color-scheme" type="text/css">.ColorScheme-Text { color:#ebdbb2; } .ColorScheme-Highlight { color:#458588; } .ColorScheme-NeutralText { color:#fe8019; } .ColorScheme-PositiveText { color:#689d6a; } .ColorScheme-NegativeText { color:#fb4934; }</style>
  </defs>
  <path class="ColorScheme-Text" d="m8 1a7 7 0 0 0-5.082 2.197l2.234 3.869a3 3 0 0 1 2.848-2.066h6.316a7 7 0 0 0-6.316-4zm-5.76 3.023a7 7 0 0 0-1.24 3.977 7 7 0 0 0 5.383 6.803l2.234-3.869a3 3 0 0 1-0.6172 0.066 3 3 0 0 1-2.594-1.502l-0.0039 2e-3zm7.99 1.977a3 3 0 0 1 0.77 2 3 3 0 0 1-0.404 1.498l2e-3 2e-3 -3.158 5.473a7 7 0 0 0 0.5605 0.027 7 7 0 0 0 7-7 7 7 0 0 0-0.299-2z" fill="currentColor"/>
  <path class="ColorScheme-Highlight" d="m8 6a2 2 0 0 0-2 2 2 2 0 0 0 2 2 2 2 0 0 0 2-2 2 2 0 0 0-2-2z" fill="currentColor"/>
</svg>

<svg xmlns="http://www.w3.org/2000/svg" width="16" height="16" version="1.1">
 <defs>
  <style id="current-color-scheme" type="text/css">
   .ColorScheme-Text { color:#ebdbb2; } .ColorScheme-Highlight { color:#458588; }
  </style>
 </defs>
 <path style="fill:currentColor" class="ColorScheme-Text" d="M 8,1 A 7,7 0 0 0 2.918,3.1973 L 5.1523,7.0664 A 3,3 0 0 1 8,5 H 14.316 A 7,7 0 0 0 8,1 Z M 2.2402,4.0234 A 7,7 0 0 0 1,8 7,7 0 0 0 6.3828,14.803 L 8.6172,10.934 A 3,3 0 0 1 8,11 3,3 0 0 1 5.4062,9.498 L 5.4023,9.5 Z M 10.23,6 A 3,3 0 0 1 11,8 3,3 0 0 1 10.596,9.498 L 10.598,9.5 7.4395,14.973 A 7,7 0 0 0 8,15 7,7 0 0 0 15,8 7,7 0 0 0 14.701,6 Z"/>
 <path style="fill:currentColor" class="ColorScheme-Highlight" d="M 8,6 A 2,2 0 0 0 6,8 2,2 0 0 0 8,10 2,2 0 0 0 10,8 2,2 0 0 0 8,6 Z"/>
</svg>
